static/src/inline-svgs/journalism/football-weekly-container/waveform-tablet.svg

<svg xmlns="http://www.w3.org/2000/svg" width="448" height="20" viewBox="0 0 448 20"><path d="M.469 3.988h2.248v15.78H.469zm3.372.892H6.09v14.89H3.841zm3.373-2.12h2.248v17.01H7.214zm3.372.67h2.249v16.34h-2.249zm3.373-.947h2.248V19.77h-2.248zm3.373.725h2.248V19.77h-2.248zm3.372.724h2.249v15.837h-2.249zm3.373.725h2.248V19.77h-2.248zm3.372.892h2.249v14.22h-2.249zm3.373.781h2.248v13.439h-2.248zm3.373 1.227h2.248V19.77h-2.248zm3.372-.112h2.249v12.324h-2.249zm3.373-2.453h2.248V19.77H40.94zm3.372.613h2.249V19.77h-2.249zm3.373.614h2.248v13.55h-2.248zm3.373.278h2.248v13.272h-2.248zm3.372.112h2.249v13.16H54.43zm3.373.614h2.248V19.77h-2.248zm3.374.613h2.248V19.77h-2.248zm3.372.669h2.249v11.264h-2.249zm3.373.055h2.248v11.21h-2.248zm3.372-.222h2.249V19.77h-2.249zm3.373.612h2.248v10.82h-2.248zm3.373.67h2.248v10.149H78.04zm3.372.447h2.249v9.703h-2.249zm3.373-6.135h2.248v15.837h-2.248zm3.372 1.004h2.249v14.833h-2.249zm3.373.279h2.248V19.77H91.53zm3.373-.502h2.248V19.77h-2.248zm3.372-1.729h2.249v16.785h-2.249zm3.373.502h2.248v16.283h-2.248zm3.372.558h2.249V19.77h-2.249zm3.373.669h2.248V19.77h-2.248zm3.373.725h2.248V19.77h-2.248zm3.372.279h2.249V19.77h-2.249zm3.373-4.015h2.248V19.77h-2.248zm3.373.446h2.249V19.77h-2.249zm3.373-.335h2.248v17.956h-2.248zm3.373.893h2.248V19.77h-2.248zm3.372.613h2.249v16.45h-2.249zm3.373 1.004h2.248V19.77h-2.248zm3.372-.837h2.249v16.283h-2.249zm3.373-1.784h2.248V19.77h-2.248zm3.373-.335h2.248V19.77h-2.248zm3.372.613h2.249v17.789h-2.249zm3.373-1.003h2.248V19.77h-2.248zm3.372.613h2.249v18.18h-2.249zm3.373-.223h2.248V19.77h-2.248zm3.373.781h2.248V19.77h-2.248zm3.372.612h2.249v17.01h-2.249zm3.373 1.005h2.248V19.77h-2.248zm3.373.669h2.248v15.335h-2.248zm3.372 1.45h2.249v13.885h-2.249zm3.373.948h2.248V19.77h-2.248zm3.373-.836h2.249V19.77h-2.249zm3.373-3.626h2.248v17.4h-2.248zm3.373 1.116h2.248v16.283h-2.248zm3.372.893h2.249v15.39h-2.249zm3.373.557h2.248v14.833h-2.248zm3.372.334h2.249v14.5h-2.249zm3.373.224h2.248V19.77h-2.248zm3.373.725h2.248v13.55h-2.248zm3.372-4.294h2.249V19.77h-2.249zm3.373.167h2.248V19.77h-2.248zm3.372.668h2.249v17.01h-2.249zm3.373.726h2.248v16.283h-2.248zm3.373.781h2.248V19.77h-2.248zm3.372-.279h2.249v15.78h-2.249zm3.373.725h2.248V19.77h-2.248zm3.372-.223h2.249v15.28h-2.249zm3.373.557h2.248v14.722h-2.248zm3.373.502h2.248v14.22h-2.248zm3.373.67h2.249v13.55H243.3zm3.373.39h2.248v13.16h-2.248zm3.372.558h2.249V19.77h-2.249zm3.373-.279h2.248V19.77h-2.248zm3.373-.446h2.248V19.77h-2.248zm3.372.613h2.249V19.77h-2.249zm3.373.614h2.248v12.1h-2.248zm3.372.78h2.249v11.32h-2.249zm3.373.837h2.249V19.77h-2.249zm3.373-3.681h2.248V19.77h-2.248zm3.372.614h2.249v13.55h-2.249zm3.373-.335h2.248v13.885h-2.248zm3.373.613h2.248v13.272h-2.248zm3.372.613h2.249v12.66h-2.249zm3.373.503h2.248V19.77h-2.248zm3.372-6.303h2.249v18.46h-2.249zm3.373 1.507h2.248V19.77h-2.248zm3.373-.278h2.248v17.23h-2.248zm3.373.724h2.249v16.506h-2.249zm3.373.669h2.248v15.837h-2.248zm3.372-1.895h2.249V19.77h-2.249zm3.373 1.115h2.248V19.77h-2.248zm3.373 1.282h2.248v15.335h-2.248zm3.372.725h2.249v14.61h-2.249zm3.373.725h2.248v13.885h-2.248zm3.372.613h2.249v13.272h-2.249zm3.373-.055h2.248V19.77h-2.248zm3.373.837h2.248V19.77h-2.248zm3.372-.169h2.249v12.66h-2.249zm3.373-4.35h2.248v17.01h-2.248zm3.372.392h2.249V19.77h-2.249zm3.373.557h2.248v16.06h-2.248zm3.373.335h2.248V19.77h-2.248zm3.372.836h2.249v14.89h-2.249zm3.373.224h2.248V19.77h-2.248zm3.373.445h2.249v14.22h-2.249zm3.373.726h2.248V19.77h-2.248zm3.373-.502h2.248V19.77h-2.248zm3.372.669h2.249V19.77h-2.249zm3.373-1.617h2.248V19.77h-2.248zm3.372.724h2.249v14.22h-2.249zm3.373.614h2.248V19.77h-2.248zm3.373-1.338h2.248V19.77h-2.248zm3.372.669h2.249V19.77h-2.249zm3.373.39h2.248v13.885h-2.248zm3.372-1.674h2.249v15.56h-2.249zm3.373.894h2.248V19.77h-2.248zm3.373-2.12h2.248v16.785h-2.248zm3.372-.167h2.249V19.77h-2.249zm3.373.613h2.248v16.34h-2.248zm3.372.614h2.249V19.77h-2.249zm3.373.056h2.248v15.67h-2.248zm3.373-2.063h2.248V19.77h-2.248zm3.373-2.008h2.249v19.74h-2.249zm3.373 1.729h2.248V19.77h-2.248zm3.372.668h2.249v17.343h-2.249zm3.373.503h2.248v16.84h-2.248zm3.373 1.003h2.248v15.837h-2.248zm3.372-3.903h2.249v19.74h-2.249zm3.373.557h2.248V19.77h-2.248zm3.372 1.729h2.249v17.454h-2.249z" fill="#999"/></svg>

<svg xmlns="http://www.w3.org/2000/svg" width="448" height="20" viewBox="0 0 448 20">
    <g fill="#999" fill-rule="nonzero">
        <path d="M.469 3.988h2.248v15.78H.469zM3.841 4.88H6.09v14.89H3.841zM7.214 2.76h2.248V19.77H7.214zM10.586 3.43h2.249v16.34h-2.249zM13.959 2.483h2.248V19.77h-2.248zM17.332 3.208h2.248V19.77h-2.248zM20.704 3.932h2.249v15.837h-2.249zM24.077 4.657h2.248V19.77h-2.248zM27.449 5.549h2.249v14.22h-2.249zM30.822 6.33h2.248v13.439h-2.248zM34.195 7.557h2.248V19.77h-2.248zM37.567 7.445h2.249v12.324h-2.249zM40.94 4.992h2.248V19.77H40.94zM44.312 5.605h2.249V19.77h-2.249zM47.685 6.219h2.248v13.55h-2.248zM51.058 6.497h2.248v13.272h-2.248zM54.43 6.609h2.249v13.16H54.43zM57.803 7.223h2.248V19.77h-2.248zM61.177 7.836h2.248V19.77h-2.248zM64.549 8.505h2.249v11.264h-2.249zM67.922 8.56h2.248v11.21h-2.248zM71.294 8.338h2.249V19.77h-2.249zM74.667 8.95h2.248v10.82h-2.248zM78.04 9.62h2.248v10.149H78.04zM81.412 10.067h2.249v9.703h-2.249zM84.785 3.932h2.248v15.837h-2.248zM88.157 4.936h2.249v14.833h-2.249zM91.53 5.215h2.248V19.77H91.53zM94.903 4.713h2.248V19.77h-2.248zM98.275 2.984h2.249v16.785h-2.249zM101.648 3.486h2.248v16.283h-2.248zM105.02 4.044h2.249V19.77h-2.249zM108.393 4.713h2.248V19.77h-2.248zM111.766 5.438h2.248V19.77h-2.248zM115.138 5.717h2.249V19.77h-2.249zM118.511 1.702h2.248V19.77h-2.248zM121.884 2.148h2.249V19.77h-2.249zM125.257 1.813h2.248v17.956h-2.248zM128.63 2.706h2.248V19.77h-2.248zM132.002 3.319h2.249v16.45h-2.249zM135.375 4.323h2.248V19.77h-2.248zM138.747 3.486h2.249v16.283h-2.249zM142.12 1.702h2.248V19.77h-2.248zM145.493 1.367h2.248V19.77h-2.248zM148.865 1.98h2.249v17.789h-2.249zM152.238.977h2.248V19.77h-2.248zM155.61 1.59h2.249v18.18h-2.249zM158.983 1.367h2.248V19.77h-2.248zM162.356 2.148h2.248V19.77h-2.248zM165.728 2.76h2.249V19.77h-2.249zM169.101 3.765h2.248V19.77h-2.248zM172.474 4.434h2.248v15.335h-2.248zM175.846 5.884h2.249v13.885h-2.249zM179.219 6.832h2.248V19.77h-2.248zM182.592 5.996h2.249V19.77h-2.249zM185.965 2.37h2.248v17.4h-2.248zM189.338 3.486h2.248v16.283h-2.248zM192.71 4.379h2.249v15.39h-2.249zM196.083 4.936h2.248v14.833h-2.248zM199.455 5.27h2.249v14.5h-2.249zM202.828 5.494h2.248V19.77h-2.248zM206.201 6.219h2.248v13.55h-2.248zM209.573 1.925h2.249V19.77h-2.249zM212.946 2.092h2.248V19.77h-2.248zM216.318 2.76h2.249V19.77h-2.249zM219.691 3.486h2.248v16.283h-2.248zM223.064 4.267h2.248V19.77h-2.248zM226.436 3.988h2.249v15.78h-2.249zM229.809 4.713h2.248V19.77h-2.248zM233.181 4.49h2.249v15.28h-2.249zM236.554 5.047h2.248v14.722h-2.248zM239.927 5.549h2.248v14.22h-2.248zM243.3 6.219h2.249v13.55H243.3zM246.673 6.609h2.248v13.16h-2.248zM250.045 7.167h2.249V19.77h-2.249zM253.418 6.888h2.248V19.77h-2.248zM256.791 6.442h2.248V19.77h-2.248zM260.163 7.055h2.249V19.77h-2.249zM263.536 7.669h2.248v12.1h-2.248zM266.908 8.449h2.249v11.32h-2.249zM270.281 9.286h2.249V19.77h-2.249zM273.654 5.605h2.248V19.77h-2.248zM277.026 6.219h2.249v13.55h-2.249zM280.399 5.884h2.248v13.885h-2.248zM283.772 6.497h2.248v13.272h-2.248zM287.144 7.11h2.249v12.66h-2.249zM290.517 7.613h2.248V19.77h-2.248zM293.889 1.31h2.249V19.77h-2.249zM297.262 2.817h2.248V19.77h-2.248zM300.635 2.539h2.248v17.23h-2.248zM304.008 3.263h2.249v16.506h-2.249zM307.381 3.932h2.248v15.837h-2.248zM310.753 2.037h2.249V19.77h-2.249zM314.126 3.152h2.248V19.77h-2.248zM317.499 4.434h2.248v15.335h-2.248zM320.871 5.159h2.249v14.61h-2.249zM324.244 5.884h2.248v13.885h-2.248zM327.616 6.497h2.249v13.272h-2.249zM330.989 6.442h2.248V19.77h-2.248zM334.362 7.279h2.248V19.77h-2.248zM337.734 7.11h2.249v12.66h-2.249zM341.107 2.76h2.248V19.77h-2.248zM344.479 3.152h2.249V19.77h-2.249zM347.852 3.709h2.248v16.06h-2.248zM351.225 4.044h2.248V19.77h-2.248zM354.597 4.88h2.249v14.89h-2.249zM357.97 5.104h2.248V19.77h-2.248zM361.343 5.549h2.249v14.22h-2.249zM364.716 6.275h2.248V19.77h-2.248zM368.089 5.773h2.248V19.77h-2.248zM371.461 6.442h2.249V19.77h-2.249zM374.834 4.825h2.248V19.77h-2.248zM378.206 5.549h2.249v14.22h-2.249zM381.579 6.163h2.248V19.77h-2.248zM384.952 4.825h2.248V19.77h-2.248zM388.324 5.494h2.249V19.77h-2.249zM391.697 5.884h2.248v13.885h-2.248zM395.069 4.21h2.249v15.56h-2.249zM398.442 5.104h2.248V19.77h-2.248zM401.815 2.984h2.248v16.785h-2.248zM405.187 2.817h2.249V19.77h-2.249zM408.56 3.43h2.248v16.34h-2.248zM411.932 4.044h2.249V19.77h-2.249zM415.305 4.1h2.248v15.67h-2.248zM418.678 2.037h2.248V19.77h-2.248zM422.051.029h2.249v19.74h-2.249zM425.424 1.758h2.248V19.77h-2.248zM428.796 2.426h2.249v17.343h-2.249zM432.169 2.929h2.248v16.84h-2.248zM435.542 3.932h2.248v15.837h-2.248zM438.914.029h2.249v19.74h-2.249zM442.287.586h2.248V19.77h-2.248zM445.659 2.315h2.249v17.454h-2.249z"/>
    </g>
</svg>
